assets/images/depfin-study/icon-error.svg

<svg xmlns="http://www.w3.org/2000/svg" width="21" height="21"><path fill-rule="evenodd" fill="#EB212E" d="M10.5 21C4.701 21 0 16.299 0 10.5S4.701 0 10.5 0 21 4.701 21 10.5 16.299 21 10.5 21zm4.099-12.778a1.276 1.276 0 0 0 0-1.855 1.4 1.4 0 0 0-1.928 0l-2.255 2.169-2.173-2.169a1.313 1.313 0 0 0-1.857 1.855l2.137 2.134-2.492 2.398a1.278 1.278 0 0 0 0 1.855 1.403 1.403 0 0 0 1.929 0l2.456-2.363 2.365 2.363a1.316 1.316 0 0 0 1.858 0 1.31 1.31 0 0 0 0-1.855l-2.331-2.328 2.291-2.204z"/></svg>

<svg
        xmlns="http://www.w3.org/2000/svg"
        xmlns:xlink="http://www.w3.org/1999/xlink"
        width="21px" height="21px">
    <path fill-rule="evenodd"  fill="rgb(235, 33, 46)"
          d="M10.500,21.000 C4.701,21.000 -0.000,16.299 -0.000,10.500 C-0.000,4.701 4.701,-0.000 10.500,-0.000 C16.299,-0.000 21.000,4.701 21.000,10.500 C21.000,16.299 16.299,21.000 10.500,21.000 ZM14.599,8.222 C15.132,7.710 15.132,6.879 14.599,6.367 C14.067,5.854 13.204,5.854 12.671,6.367 L10.416,8.536 L8.243,6.367 C7.730,5.854 6.899,5.854 6.386,6.367 C5.873,6.879 5.873,7.710 6.386,8.222 L8.523,10.356 L6.031,12.754 C5.499,13.266 5.499,14.097 6.031,14.609 C6.564,15.121 7.427,15.121 7.960,14.609 L10.416,12.246 L12.781,14.609 C13.294,15.121 14.126,15.121 14.639,14.609 C15.152,14.097 15.152,13.266 14.639,12.754 L12.308,10.426 L14.599,8.222 Z"/>
</svg>
